X: 31
T: Kesh, The
Z: Marc-Antoine Bérubé
S: https://thesession.org/tunes/55#setting53456
R: jig
M: 6/8
L: 1/8
K: Gmaj
|: G2G GAB | A2A ABd | edd gdd | edB dBA |
G2G GAB | A2A ABd | edd gdB | AGF G3 :|
|: B2B dBd | ege dBA | B2B dBG | A2A AGA |
B2B dBd | ege dBd | gfg abc' | bgf g3 :|

